icons/codepsaces-3-16.svg

<svg width="16" height="16" viewBox="0 0 16 16" fill="none" xmlns="http://www.w3.org/2000/svg">
<g clip-path="url(#clip0)">
<path fill-rule="evenodd" clip-rule="evenodd" d="M4.96967 2.71967C5.26257 2.42678 5.73744 2.42678 6.03033 2.71967L8 4.68934L9.96967 2.71967C10.2626 2.42678 10.7374 2.42678 11.0303 2.71967L15.7803 7.46967C15.921 7.61032 16 7.80109 16 8C16 8.19891 15.921 8.38968 15.7803 8.53033L11.0303 13.2803C10.7374 13.5732 10.2626 13.5732 9.96967 13.2803L8 11.3107L6.03033 13.2803C5.73744 13.5732 5.26257 13.5732 4.96967 13.2803L0.21967 8.53033C0.0790177 8.38968 0 8.19891 0 8C0 7.80109 0.0790176 7.61032 0.21967 7.46967L4.96967 2.71967ZM9.06066 10.25L10.5 11.6893L14.1893 8L10.5 4.31066L9.06066 5.75L10.7803 7.46967C10.921 7.61032 11 7.80109 11 8C11 8.19891 10.921 8.38968 10.7803 8.53033L9.06066 10.25ZM6.93934 5.75L5.21967 7.46967C5.07902 7.61032 5 7.80109 5 8C5 8.19891 5.07902 8.38968 5.21967 8.53033L6.93934 10.25L5.5 11.6893L1.81066 8L5.5 4.31066L6.93934 5.75ZM8 6.81066L9.18934 8L8 9.18934L6.81066 8L8 6.81066Z" fill="black"/>
</g>
<defs>
<clipPath id="clip0">
<rect width="16" height="16" fill="white"/>
</clipPath>
</defs>
</svg>

<svg xmlns="http://www.w3.org/2000/svg" width="16" height="16" viewBox="0 0 16 16"><path fill-rule="evenodd" d="M4.97 2.72a.75.75 0 011.06 0L8 4.69l1.97-1.97a.75.75 0 011.06 0l4.75 4.75a.75.75 0 010 1.06l-4.75 4.75a.75.75 0 01-1.06 0L8 11.31l-1.97 1.97a.75.75 0 01-1.06 0L.22 8.53a.75.75 0 010-1.06l4.75-4.75zm4.09 7.53l1.44 1.44L14.19 8 10.5 4.31 9.06 5.75l1.72 1.72a.75.75 0 010 1.06l-1.72 1.72zm-2.12-4.5L5.22 7.47a.75.75 0 000 1.06l1.72 1.72-1.44 1.44L1.81 8 5.5 4.31l1.44 1.44zM8 6.81L9.19 8 8 9.19 6.81 8 8 6.81z"/></svg>
